X: 2
T: The Drops Of Brandy
R: slip jig
M: 9/8
L: 1/8
K: Amaj
|: ABA FDF FDF | ABA FDF GFE |
ABA FDF FDF | GFG E2 F GFE :|
|: DFA dAF dAF | DFA dAF GFE |
[1 DFA dAF dAF | GFG E2 F GFE :|
[2 DFA dfe dAF | GFG E2 F GFE ||


Tune 388	Setting 25912

